img/google-plus-bw.svg

<?xml version="1.0" encoding="UTF-8" standalone="no"?>
<!-- Created with Inkscape (http://www.inkscape.org/) -->

<svg
   xmlns:dc="http://purl.org/dc/elements/1.1/"
   xmlns:cc="http://creativecommons.org/ns#"
   xmlns:rdf="http://www.w3.org/1999/02/22-rdf-syntax-ns#"
   xmlns:svg="http://www.w3.org/2000/svg"
   xmlns="http://www.w3.org/2000/svg"
   xmlns:xlink="http://www.w3.org/1999/xlink"
   version="1.1"
   width="32"
   height="32">
  <path
      d="M 0,0 0,32 32,32 32,0 0,0 z m 13.34375,5.34375 c 0.183818,-0.017136 0.376675,0 0.5625,0 l 6.625,0 -1.5,1.0625 -2.09375,0 c 1.39477,0.53647 2.15625,2.17559 2.15625,3.84375 0,1.4016 -0.77814,2.58057 -1.875,3.4375 -1.07012,0.83608 -1.28125,1.19538 -1.28125,1.90625 0,0.60663 1.15067,1.63809 1.75,2.0625 C 19.43959,18.89537 20,20.04802 20,21.96875 20,24.36435 17.66731,26.75 13.46875,26.75 9.78589,26.75 6.6875,25.23913 6.6875,22.84375 c 0,-2.43224 2.84846,-4.78125 6.53125,-4.78125 l 1.125,0 c -0.50406,-0.49032 -0.875,-1.10277 -0.875,-1.84375 0,-0.43952 0.11618,-0.84288 0.3125,-1.21875 -0.20012,0.0146 -0.38346,0 -0.59375,0 -3.0249,0 -5.0625,-2.14624 -5.0625,-4.8125 0,-2.4462375 2.461475,-4.5867175 5.21875,-4.84375 z M 13.0625,6.28125 C 11.35404,6.23016 10.20508,7.94357 10.5,10.1875 c 0.29498,2.24354 1.91616,4.10525 3.625,4.15625 1.70806,0.05109 2.85718,-1.72483 2.5625,-3.96875 C 16.39243,8.1313 14.77064,6.33265 13.0625,6.28125 z M 23.25,11.75 l 1.46875,0 0,2.84375 2.90625,0 0,1.5 -2.90625,0 0,2.90625 -1.46875,0 0,-2.90625 -2.90625,0 0,-1.5 2.90625,0 0,-2.84375 z m -9.34375,6.9375 c -2.54555,-0.02746 -4.8125,1.57158 -4.8125,3.46875 0,1.93563 1.82947,3.53125 4.375,3.53125 3.5787,0 4.8125,-1.50188 4.8125,-3.4375 0,-0.23342 -0.0099,-0.4654 -0.0625,-0.6875 -0.27964,-1.09511 -1.2745,-1.63274 -2.65625,-2.59375 -0.50263,-0.16261 -1.06225,-0.27525 -1.65625,-0.28125 z"
      style="fill:#222222;fill-opacity:1;fill-rule:evenodd;stroke:none" />
</svg>

<?xml version="1.0" encoding="UTF-8" standalone="no"?>
<!-- Created with Inkscape (http://www.inkscape.org/) -->

<svg
   xmlns:dc="http://purl.org/dc/elements/1.1/"
   xmlns:cc="http://creativecommons.org/ns#"
   xmlns:rdf="http://www.w3.org/1999/02/22-rdf-syntax-ns#"
   xmlns:svg="http://www.w3.org/2000/svg"
   xmlns="http://www.w3.org/2000/svg"
   xmlns:xlink="http://www.w3.org/1999/xlink"
   xmlns:sodipodi="http://sodipodi.sourceforge.net/DTD/sodipodi-0.dtd"
   xmlns:inkscape="http://www.inkscape.org/namespaces/inkscape"
   width="32.000004"
   height="32.000011"
   id="svg7226"
   version="1.1"
   inkscape:version="0.48.4 r9939"
   sodipodi:docname="google_plus_2_gray.svg">
  <defs
     id="defs7228">
    <linearGradient
       inkscape:collect="always"
       xlink:href="#linearGradient4533"
       id="linearGradient7179"
       gradientUnits="userSpaceOnUse"
       gradientTransform="matrix(601.83419,621.21764,-620.61929,601.25451,1843.782,431.5246)"
       spreadMethod="pad"
       x1="0.23999999"
       y1="0"
       x2="0.75999999"
       y2="0" />
    <linearGradient
       x1="0.23999999"
       y1="0"
       x2="0.75999999"
       y2="0"
       gradientUnits="userSpaceOnUse"
       gradientTransform="matrix(601.83419,621.21764,-620.61929,601.25451,1843.782,431.5246)"
       spreadMethod="pad"
       id="linearGradient4533">
      <stop
         style="stop-opacity:1;stop-color:#a8291c"
         offset="0"
         id="stop4535" />
      <stop
         style="stop-opacity:1;stop-color:#d84937"
         offset="1"
         id="stop4537" />
    </linearGradient>
    <clipPath
       clipPathUnits="userSpaceOnUse"
       id="clipPath4545">
      <path
         inkscape:connector-curvature="0"
         d="m 1618.7902,845.7437 512.0005,0 0,512.0006 -512.0005,0 0,-512.0006 z"
         clip-rule="evenodd"
         id="path4547" />
    </clipPath>
    <linearGradient
       inkscape:collect="always"
       xlink:href="#linearGradient4561"
       id="linearGradient7181"
       gradientUnits="userSpaceOnUse"
       gradientTransform="matrix(-305.26269,-713.94252,569.82418,-243.64155,1591.8299,1462.8481)"
       spreadMethod="pad"
       x1="0.20999999"
       y1="0"
       x2="0.79000002"
       y2="0" />
    <linearGradient
       x1="0.20999999"
       y1="0"
       x2="0.79000002"
       y2="0"
       gradientUnits="userSpaceOnUse"
       gradientTransform="matrix(-305.26269,-713.94252,569.82418,-243.64155,1591.8299,1462.8481)"
       spreadMethod="pad"
       id="linearGradient4561">
      <stop
         style="stop-opacity:1;stop-color:#f9f9f9"
         offset="0"
         id="stop4563" />
      <stop
         style="stop-opacity:1;stop-color:#f9ddda"
         offset="1"
         id="stop4565" />
    </linearGradient>
    <linearGradient
       inkscape:collect="always"
       xlink:href="#linearGradient4581"
       id="linearGradient7183"
       gradientUnits="userSpaceOnUse"
       gradientTransform="matrix(-173.42906,-734.51192,504.2663,-119.06468,1801.5593,1439.6712)"
       spreadMethod="pad"
       x1="0.15000001"
       y1="0"
       x2="0.85000002"
       y2="0" />
    <linearGradient
       x1="0.15000001"
       y1="0"
       x2="0.85000002"
       y2="0"
       gradientUnits="userSpaceOnUse"
       gradientTransform="matrix(-173.42906,-734.51192,504.2663,-119.06468,1801.5593,1439.6712)"
       spreadMethod="pad"
       id="linearGradient4581">
      <stop
         style="stop-opacity:1;stop-color:#f9f9f9"
         offset="0"
         id="stop4583" />
      <stop
         style="stop-opacity:1;stop-color:#f9ddda"
         offset="1"
         id="stop4585" />
    </linearGradient>
    <linearGradient
       inkscape:collect="always"
       xlink:href="#linearGradient4533"
       id="linearGradient7368"
       gradientUnits="userSpaceOnUse"
       gradientTransform="matrix(601.83419,621.21764,-620.61929,601.25451,1843.782,431.5246)"
       spreadMethod="pad"
       x1="0.23999999"
       y1="0"
       x2="0.75999999"
       y2="0" />
    <linearGradient
       inkscape:collect="always"
       xlink:href="#linearGradient4561"
       id="linearGradient7370"
       gradientUnits="userSpaceOnUse"
       gradientTransform="matrix(-305.26269,-713.94252,569.82418,-243.64155,1591.8299,1462.8481)"
       spreadMethod="pad"
       x1="0.20999999"
       y1="0"
       x2="0.79000002"
       y2="0" />
    <linearGradient
       inkscape:collect="always"
       xlink:href="#linearGradient4581"
       id="linearGradient7372"
       gradientUnits="userSpaceOnUse"
       gradientTransform="matrix(-173.42906,-734.51192,504.2663,-119.06468,1801.5593,1439.6712)"
       spreadMethod="pad"
       x1="0.15000001"
       y1="0"
       x2="0.85000002"
       y2="0" />
    <linearGradient
       inkscape:collect="always"
       xlink:href="#linearGradient4533"
       id="linearGradient3124"
       gradientUnits="userSpaceOnUse"
       gradientTransform="matrix(601.83419,621.21764,-620.61929,601.25451,1843.782,431.5246)"
       spreadMethod="pad"
       x1="0.23999999"
       y1="0"
       x2="0.75999999"
       y2="0" />
    <linearGradient
       inkscape:collect="always"
       xlink:href="#linearGradient4533"
       id="linearGradient3129"
       gradientUnits="userSpaceOnUse"
       gradientTransform="matrix(601.83419,621.21764,-620.61929,601.25451,1843.782,431.5246)"
       spreadMethod="pad"
       x1="0.23999999"
       y1="0"
       x2="0.75999999"
       y2="0" />
    <linearGradient
       inkscape:collect="always"
       xlink:href="#linearGradient4533"
       id="linearGradient3133"
       gradientUnits="userSpaceOnUse"
       gradientTransform="matrix(601.83419,621.21764,-620.61929,601.25451,1843.782,431.5246)"
       spreadMethod="pad"
       x1="0.23999999"
       y1="0"
       x2="0.75999999"
       y2="0" />
    <linearGradient
       inkscape:collect="always"
       xlink:href="#linearGradient4561"
       id="linearGradient3142"
       gradientUnits="userSpaceOnUse"
       gradientTransform="matrix(-305.26269,-713.94252,569.82418,-243.64155,1591.8299,1462.8481)"
       spreadMethod="pad"
       x1="0.20999999"
       y1="0"
       x2="0.79000002"
       y2="0" />
    <linearGradient
       inkscape:collect="always"
       xlink:href="#linearGradient4581"
       id="linearGradient3144"
       gradientUnits="userSpaceOnUse"
       gradientTransform="matrix(-173.42906,-734.51192,504.2663,-119.06468,1801.5593,1439.6712)"
       spreadMethod="pad"
       x1="0.15000001"
       y1="0"
       x2="0.85000002"
       y2="0" />
    <linearGradient
       inkscape:collect="always"
       xlink:href="#linearGradient4561"
       id="linearGradient3161"
       gradientUnits="userSpaceOnUse"
       gradientTransform="matrix(-305.26269,-713.94252,569.82418,-243.64155,1591.8299,1462.8481)"
       spreadMethod="pad"
       x1="0.20999999"
       y1="0"
       x2="0.79000002"
       y2="0" />
    <linearGradient
       inkscape:collect="always"
       xlink:href="#linearGradient4581"
       id="linearGradient3163"
       gradientUnits="userSpaceOnUse"
       gradientTransform="matrix(-173.42906,-734.51192,504.2663,-119.06468,1801.5593,1439.6712)"
       spreadMethod="pad"
       x1="0.15000001"
       y1="0"
       x2="0.85000002"
       y2="0" />
    <linearGradient
       inkscape:collect="always"
       xlink:href="#linearGradient4581"
       id="linearGradient3953"
       gradientUnits="userSpaceOnUse"
       gradientTransform="matrix(-173.42906,-734.51192,504.2663,-119.06468,1801.5593,1439.6712)"
       spreadMethod="pad"
       x1="0.15000001"
       y1="0"
       x2="0.85000002"
       y2="0" />
    <linearGradient
       inkscape:collect="always"
       xlink:href="#linearGradient4581"
       id="linearGradient3958"
       gradientUnits="userSpaceOnUse"
       gradientTransform="matrix(-173.42906,-734.51192,504.2663,-119.06468,1801.5593,1439.6712)"
       spreadMethod="pad"
       x1="0.15000001"
       y1="0"
       x2="0.85000002"
       y2="0" />
    <linearGradient
       inkscape:collect="always"
       xlink:href="#linearGradient4581"
       id="linearGradient3962"
       gradientUnits="userSpaceOnUse"
       gradientTransform="matrix(-173.42906,-734.51192,504.2663,-119.06468,1801.5593,1439.6712)"
       spreadMethod="pad"
       x1="0.15000001"
       y1="0"
       x2="0.85000002"
       y2="0" />
    <linearGradient
       inkscape:collect="always"
       xlink:href="#linearGradient4561"
       id="linearGradient3967"
       gradientUnits="userSpaceOnUse"
       gradientTransform="matrix(-305.26269,-713.94252,569.82418,-243.64155,1591.8299,1462.8481)"
       spreadMethod="pad"
       x1="0.20999999"
       y1="0"
       x2="0.79000002"
       y2="0" />
    <linearGradient
       inkscape:collect="always"
       xlink:href="#linearGradient4561"
       id="linearGradient3972"
       gradientUnits="userSpaceOnUse"
       gradientTransform="matrix(-305.26269,-713.94252,569.82418,-243.64155,1591.8299,1462.8481)"
       spreadMethod="pad"
       x1="0.20999999"
       y1="0"
       x2="0.79000002"
       y2="0" />
    <linearGradient
       inkscape:collect="always"
       xlink:href="#linearGradient4561"
       id="linearGradient3976"
       gradientUnits="userSpaceOnUse"
       gradientTransform="matrix(-305.26269,-713.94252,569.82418,-243.64155,1591.8299,1462.8481)"
       spreadMethod="pad"
       x1="0.20999999"
       y1="0"
       x2="0.79000002"
       y2="0" />
  </defs>
  <sodipodi:namedview
     id="base"
     pagecolor="#ffffff"
     bordercolor="#666666"
     borderopacity="1.0"
     inkscape:pageopacity="0.0"
     inkscape:pageshadow="2"
     inkscape:zoom="12.49875"
     inkscape:cx="7.2343234"
     inkscape:cy="8.1448148"
     inkscape:current-layer="layer1"
     showgrid="true"
     inkscape:document-units="px"
     inkscape:grid-bbox="true"
     fit-margin-top="0"
     fit-margin-left="0"
     fit-margin-right="0"
     fit-margin-bottom="0"
     inkscape:window-width="1855"
     inkscape:window-height="1056"
     inkscape:window-x="65"
     inkscape:window-y="24"
     inkscape:window-maximized="1" />
  <metadata
     id="metadata7231">
    <rdf:RDF>
      <cc:Work
         rdf:about="">
        <dc:format>image/svg+xml</dc:format>
        <dc:type
           rdf:resource="http://purl.org/dc/dcmitype/StillImage" />
        <dc:title />
      </cc:Work>
    </rdf:RDF>
  </metadata>
  <g
     id="layer1"
     inkscape:label="Layer 1"
     inkscape:groupmode="layer"
     transform="translate(296.36395,-316.36407)">
    <path
       style="fill:#222222;fill-opacity:1;fill-rule:evenodd;stroke:none"
       d="M 0 0 L 0 32 L 32 32 L 32 0 L 0 0 z M 13.34375 5.34375 C 13.527568 5.3266145 13.720425 5.34375 13.90625 5.34375 L 20.53125 5.34375 L 19.03125 6.40625 L 16.9375 6.40625 C 18.33227 6.94272 19.09375 8.58184 19.09375 10.25 C 19.09375 11.6516 18.31561 12.83057 17.21875 13.6875 C 16.14863 14.52358 15.9375 14.88288 15.9375 15.59375 C 15.9375 16.20038 17.08817 17.23184 17.6875 17.65625 C 19.43959 18.89537 20 20.04802 20 21.96875 C 20 24.36435 17.66731 26.75 13.46875 26.75 C 9.78589 26.75 6.6875 25.23913 6.6875 22.84375 C 6.6875 20.41151 9.53596 18.0625 13.21875 18.0625 L 14.34375 18.0625 C 13.83969 17.57218 13.46875 16.95973 13.46875 16.21875 C 13.46875 15.77923 13.58493 15.37587 13.78125 15 C 13.58113 15.0146 13.39779 15 13.1875 15 C 10.1626 15 8.125 12.85376 8.125 10.1875 C 8.125 7.7412625 10.586475 5.6007825 13.34375 5.34375 z M 13.0625 6.28125 C 11.35404 6.23016 10.20508 7.94357 10.5 10.1875 C 10.79498 12.43104 12.41616 14.29275 14.125 14.34375 C 15.83306 14.39484 16.98218 12.61892 16.6875 10.375 C 16.39243 8.1313 14.77064 6.33265 13.0625 6.28125 z M 23.25 11.75 L 24.71875 11.75 L 24.71875 14.59375 L 27.625 14.59375 L 27.625 16.09375 L 24.71875 16.09375 L 24.71875 19 L 23.25 19 L 23.25 16.09375 L 20.34375 16.09375 L 20.34375 14.59375 L 23.25 14.59375 L 23.25 11.75 z M 13.90625 18.6875 C 11.3607 18.66004 9.09375 20.25908 9.09375 22.15625 C 9.09375 24.09188 10.92322 25.6875 13.46875 25.6875 C 17.04745 25.6875 18.28125 24.18562 18.28125 22.25 C 18.28125 22.01658 18.27135 21.7846 18.21875 21.5625 C 17.93911 20.46739 16.94425 19.92976 15.5625 18.96875 C 15.05987 18.80614 14.50025 18.6935 13.90625 18.6875 z "
       id="path3243"
       transform="translate(-296.36395,316.36407)" />
  </g>
</svg>
